X: 34630
T: Road To Ballydehob, The
R: reel
M: 4/4
K: Gmajor
|:BA|G2Bc dBGB|cdef gedB|cdec BcdB|AGAB AcBA|
G2Bc dBGB|cdef gedB|cdef gfge|cAFA G2:|
|:Bc|d2Bd gdBc|dggf ~g2AB|c2Ac ecAB|ceed ~e2Bc|
d2Bd gdBc|dggf ~g2ed|cdef gfge|cAFA G2:|

